libs/ui/packages/crypto-icons/src/svg/DRGN.svg

<svg width="24" height="24" viewBox="0 0 24 24" fill="none">
<path opacity="0.6" d="M7.04999 15.585H9.16349L9.10949 10.0897L16.98 20.082L16.9552 8.283H14.8747L14.9287 13.8337L7.05299 3.81525L7.04999 15.585Z" fill="#C91111"/>
<path d="M7.04999 7.46381L7.06199 3.82556L16.9492 16.3896L16.9905 20.0961L7.04999 7.46381Z" fill="#C91111"/>
</svg>

<svg width="24" height="24" viewBox="0 0 24 24" fill="none"><path fill="#c91111" d="M7.05 15.585h2.113L9.11 10.09l7.871 9.992-.025-11.799h-2.08l.054 5.55L7.053 3.816z" opacity=".6"/><path fill="#c91111" d="m7.05 7.464.012-3.638 9.887 12.564.041 3.706z"/></svg>
